X: 184
T: Miss Susan Cooper
C: R-96
C: Ronald Cooper
M: C|
Z: Transcribed to abc by Mary Lou Knack
R: reel
K: D
(3ABc| "D"dfed "G"B2dB| "D"A2FA DAFA| ABde "Adim"fa^ga| "Em"=g2fd "A7"eAce|
       "D"dfed "G"B2dB| "D"A2FA DAFA| ABde fafd| "A7"eAce "D"[F2d2] :|
|:\
dc| "Bm"Bcde fBBc| "E7"def^g "A"a2gf| "A7"eAce "Adim"fa^ga| "Em"=g2fd "A7"eAce|
    "D"dfed "G"B2dB| "D"A2FA DAFA| ABde fafd| "A7"eAce "D"[F2d2] :|
%%text 9/1/98
%%vskip 1cm
%%textfont       Times-Roman 13.0
%%text R-97, "Down Yonder", moved to S-D
%%textfont       Times-Roman 9.0
